X:12
T:Jimmy Neary's Request 
B:Terry "Cuz" Teahan "Sliabh Luachra on Parade" 1980
Z:Patrick Cavanagh
M:6/8
L:1/8
R:Jig
K:D
de ||: fed edB | AdB AFE | BAG DEG | ABd edB | 
fed edB | AdB AFE | BAF DFA | Bdd d3 :| 
| dfa afa | baf dfd | fef edB | ABd edB | 
dfa afa | baf dfd | fef edB | Add d3 :|| 

